assets/icons/24px/stroke/chevron-up-24px.svg

<svg width="24" height="24" viewBox="0 0 24 24" fill="none" xmlns="http://www.w3.org/2000/svg">
<path fill-rule="evenodd" clip-rule="evenodd" d="M11.3817 9.12339C11.0107 9.40646 10.5653 9.84882 9.87868 10.5355L4.70711 15.707C4.31658 16.0976 3.68342 16.0976 3.29289 15.707C2.90237 15.3165 2.90237 14.6834 3.29289 14.2928L8.46447 9.12126C8.48004 9.10569 8.49556 9.09017 8.51102 9.0747C9.13782 8.44783 9.67789 7.90771 10.1685 7.53335C10.6944 7.13215 11.2792 6.82837 12 6.82837C12.7208 6.82837 13.3056 7.13215 13.8315 7.53335C14.3221 7.90771 14.8622 8.44784 15.489 9.07472L20.7071 14.2928C21.0976 14.6834 21.0976 15.3165 20.7071 15.707C20.3166 16.0976 19.6834 16.0976 19.2929 15.707L14.1213 10.5355C13.4347 9.84882 12.9893 9.40646 12.6183 9.12339C12.2704 8.85793 12.1077 8.82837 12 8.82837C11.8923 8.82837 11.7296 8.85793 11.3817 9.12339Z" fill="white"/>
<path fill-rule="evenodd" clip-rule="evenodd" d="M11.3817 9.12339C11.0107 9.40646 10.5653 9.84882 9.87868 10.5355L4.70711 15.707C4.31658 16.0976 3.68342 16.0976 3.29289 15.707C2.90237 15.3165 2.90237 14.6834 3.29289 14.2928L8.46447 9.12126C8.48004 9.10569 8.49556 9.09017 8.51102 9.0747C9.13782 8.44783 9.67789 7.90771 10.1685 7.53335C10.6944 7.13215 11.2792 6.82837 12 6.82837C12.7208 6.82837 13.3056 7.13215 13.8315 7.53335C14.3221 7.90771 14.8622 8.44784 15.489 9.07472L20.7071 14.2928C21.0976 14.6834 21.0976 15.3165 20.7071 15.707C20.3166 16.0976 19.6834 16.0976 19.2929 15.707L14.1213 10.5355C13.4347 9.84882 12.9893 9.40646 12.6183 9.12339C12.2704 8.85793 12.1077 8.82837 12 8.82837C11.8923 8.82837 11.7296 8.85793 11.3817 9.12339Z" fill="white"/>
</svg>

<svg width="24" height="24" fill="none" xmlns="http://www.w3.org/2000/svg"><path fill-rule="evenodd" clip-rule="evenodd" d="M11.382 9.123c-.371.283-.817.726-1.503 1.413l-5.172 5.171a1 1 0 1 1-1.414-1.414L8.464 9.12l.047-.046c.627-.627 1.167-1.167 1.658-1.542.525-.4 1.11-.705 1.831-.705.72 0 1.306.304 1.832.705.49.375 1.03.915 1.657 1.542l5.218 5.218a1 1 0 0 1-1.414 1.414l-5.172-5.171c-.686-.687-1.132-1.13-1.503-1.413-.348-.265-.51-.295-.618-.295-.108 0-.27.03-.618.295z" fill="#fff"/><path fill-rule="evenodd" clip-rule="evenodd" d="M11.382 9.123c-.371.283-.817.726-1.503 1.413l-5.172 5.171a1 1 0 1 1-1.414-1.414L8.464 9.12l.047-.046c.627-.627 1.167-1.167 1.658-1.542.525-.4 1.11-.705 1.831-.705.72 0 1.306.304 1.832.705.49.375 1.03.915 1.657 1.542l5.218 5.218a1 1 0 0 1-1.414 1.414l-5.172-5.171c-.686-.687-1.132-1.13-1.503-1.413-.348-.265-.51-.295-.618-.295-.108 0-.27.03-.618.295z" fill="#fff"/></svg>
